X: 11
T:Bonnie Kate
M:4/4
L:1/8
F:http://blackrosetheband.googlepages.com/ABCTUNES.ABC May 2009
S:Kevin Burke Live - Track 2
K:D
dB|A2 dA B2 AF|DFAF EA,=CE|DFAF GBed|cABc d3B|
A2 dA (3Bcd AF|DFAF GFEF|DFAF GBed|cABc d2 Bc|
(3dcB (cBA BdAF|(3GFE (3FED EA,CE|DFAF GBed|cABc d3B|
AF ~F2 dF ~F2|AF ~F2 EA,=CE|DFAF GBed|cABc defg|
a2 fd Adef|gfed cdef|g z gf gbag|fgfe defg|
a2 fd Adef|gfed cdef|g z gf gbag|fgfe defg|
ad (3ddd adbd| ad (3ddd cdef|g=c (3ccc gcac|g=c (3ccc defg|
ad (3ddd adbd| ad (3ddd cdef|gfed cbag|(3fgf (3efe defg| 
"A Variation"
AF|DFAF DGBG|DFAF EA,CE|DFAF GBed|cABc d2 Bc|
d2 (3cdc (3BcB (3ABA|(3GAG (3FGF EA,CE|DFAF GBed|cABc d2 Bc|

